X: 20
T:Harrison's Celebrated Reel
M:2/4
L:1/16
Z:abc by Bruce Osborne - bosborne@kos.net
K:A
AB|cAFA E2eg|aefa edcB|cAFA E2AB|cABc A2AB|!
cAFA E2eg|aefa edcB|cAFA E2AB|cAGB A2:|!
|:E2|Aceg a2fa|g2eg fece|Aceg afed|cABc A2E2|!
Aceg a2fa|g2eg fecB|Aceg afed|cABc A2:|!
